X: 21573
T: Peggie's Dream
%R: jig
B: James Oswald "The Caledonian Pocket Companion" v.2 p.157 #3
Z: 2018 John Chambers <jc:trillian.mit.edu>
M: 6/8
L: 1/8
K: A
|:\
e2a eca | eca ecA | Tf2e ecA | aec TB3 |\
e2a eca | eca ecA | f2a ecA | (B/c/d)B A3 :|
|:\
=g3 Tf2a | efe ecA | AcA cec | (f/^g/a)c B3 |\
=g3 f2a | efd ecA | f2a ecA | (B/c/d)B A3 :|


